admin/src/theme/img/safetyequipment/n.svg

<svg width="32" height="32" viewBox="0 0 32 32" xmlns="http://www.w3.org/2000/svg">
  <g fill="none" fill-rule="evenodd">
    <path d="M11.24 30.8571429h9.5257143V32H11.24v-1.1428571ZM16 6.09714286c.6114286 0 1.1428571.22857143 1.6.68571428.4571429.45714286.6857143.98857143.6857143 1.6C18.2857143 8.99428571 18.0571429 9.56 17.6 10c-.4571429.4457143-.9885714.6685714-1.6.6685714-.6114286 0-1.1771429-.2228571-1.6171429-.6685714-.4457142-.44571429-.6685714-.98285714-.6685714-1.61714286 0-.63428571.2228572-1.14285714.6685714-1.6.4457143-.45714285.9828572-.68571428 1.6171429-.68571428Zm0 4.95428574c-.6342857 0-1.1771429.2285714-1.6171429.6857143-.4457142.4571428-.6685714.9885714-.6685714 1.6 0 .6114285.2228572 1.1771428.6685714 1.6171428.4457143.4457143.9828572.6685714 1.6171429.6685714s1.1428571-.2228571 1.6-.6685714.6857143-.9828571.6857143-1.6171428c0-.6342858-.2285714-1.1428572-.6857143-1.6-.4571429-.4571429-.9885714-.6857143-1.6-.6857143Zm-.5714286-.3828572h1.1428572v.3828572h-1.1428572v-.3828572Zm0 4.9542857h1.1428572v15.24h-1.1428572V15.6171429v.0057142Z" fill="#EC0E0E" fill-rule="nonzero"/>
    <path d="M0 0h32v32H0z"/>
  </g>
</svg>

<?xml version="1.0" encoding="UTF-8"?>
<svg width="32px" height="32px" viewBox="0 0 32 32" version="1.1" xmlns="http://www.w3.org/2000/svg" xmlns:xlink="http://www.w3.org/1999/xlink">
    <title>31390F22-F45C-4834-9735-865AEEFFD35E</title>
    <g id="Squat-laskuri" stroke="none" stroke-width="1" fill="none" fill-rule="evenodd">
        <g id="colors_and_typography" transform="translate(-766.000000, -954.000000)">
            <g id="turvalaite_ikonit" transform="translate(718.000000, 906.000000)">
                <g id="karimerkki" transform="translate(48.000000, 48.000000)">
                    <path d="M11.24,30.8571429 L20.7657143,30.8571429 L20.7657143,32 L11.24,32 L11.24,30.8571429 Z M16,6.09714286 C16.6114286,6.09714286 17.1428571,6.32571429 17.6,6.78285714 C18.0571429,7.24 18.2857143,7.77142857 18.2857143,8.38285714 C18.2857143,8.99428571 18.0571429,9.56 17.6,10 C17.1428571,10.4457143 16.6114286,10.6685714 16,10.6685714 C15.3885714,10.6685714 14.8228571,10.4457143 14.3828571,10 C13.9371429,9.55428571 13.7142857,9.01714286 13.7142857,8.38285714 C13.7142857,7.74857143 13.9371429,7.24 14.3828571,6.78285714 C14.8285714,6.32571429 15.3657143,6.09714286 16,6.09714286 L16,6.09714286 Z M16,11.0514286 C15.3657143,11.0514286 14.8228571,11.28 14.3828571,11.7371429 C13.9371429,12.1942857 13.7142857,12.7257143 13.7142857,13.3371429 C13.7142857,13.9485714 13.9371429,14.5142857 14.3828571,14.9542857 C14.8285714,15.4 15.3657143,15.6228571 16,15.6228571 C16.6342857,15.6228571 17.1428571,15.4 17.6,14.9542857 C18.0571429,14.5085714 18.2857143,13.9714286 18.2857143,13.3371429 C18.2857143,12.7028571 18.0571429,12.1942857 17.6,11.7371429 C17.1428571,11.28 16.6114286,11.0514286 16,11.0514286 L16,11.0514286 Z M15.4285714,10.6685714 L16.5714286,10.6685714 L16.5714286,11.0514286 L15.4285714,11.0514286 L15.4285714,10.6685714 Z M15.4285714,15.6228571 L16.5714286,15.6228571 L16.5714286,30.8628571 L15.4285714,30.8628571 L15.4285714,15.6171429 L15.4285714,15.6228571 Z" id="Shape" fill="#EC0E0E" fill-rule="nonzero"></path>
                    <rect id="Rectangle" x="0" y="0" width="32" height="32"></rect>
                </g>
            </g>
        </g>
    </g>
</svg>
